src/img/sprite.svg

<?xml version="1.0" encoding="utf-8"?>
<svg viewBox="0 0 161 42" xmlns="http://www.w3.org/2000/svg" xmlns:xlink="http://www.w3.org/1999/xlink">

	<style>:root>svg{display:none}:root>svg:target{display:block}</style>

	<!-- Вывод -->
	<!-- <svg class="icon">
		<use xlink:href="img/sprite.svg#clock"></use>
	</svg> -->

	<svg fill="none" viewBox="0 0 24 24" id="alert" xmlns="http://www.w3.org/2000/svg">
		<path d="M12 16v-5m0-3h-.01M2 12C2 6.477 6.477 2 12 2s10 4.477 10 10-4.477 10-10 10S2 17.523 2 12Z" stroke="#2E58DB" stroke-linecap="round" stroke-linejoin="round"/>
	</svg>

	<svg fill="none" viewBox="0 0 24 24" id="arrow-left" xmlns="http://www.w3.org/2000/svg">
		<path d="m10 12 4-4v8l-4-4Z" fill="#151515"/>
	</svg>
	
	<svg fill="none" viewBox="0 0 24 24" id="arrow-right" xmlns="http://www.w3.org/2000/svg">
		<path d="m14 12-4-4v8l4-4Z" fill="#9CA5B3"/>
	</svg>
	
	<svg fill="none" viewBox="0 0 24 24" id="arrow-up" xmlns="http://www.w3.org/2000/svg">
		<path d="m12 10-4 4h8l-4-4Z" fill="#646970"/>
	</svg>
	
	<svg fill="none" viewBox="0 0 16 16" id="clock" xmlns="http://www.w3.org/2000/svg">
		<g clip-path="url(#ea)">
			<path d="M8 4v4l2.667 1.333m4-1.333A6.667 6.667 0 1 1 1.333 8a6.667 6.667 0 0 1 13.334 0Z" stroke="#646970" stroke-linecap="round" stroke-linejoin="round"/>
		</g>
		<defs>
			<clipPath id="ea">
				<path fill="#fff" d="M0 0h16v16H0z"/>
			</clipPath>
		</defs>
	</svg>
	
	<svg fill="none" viewBox="0 0 24 24" id="close" xmlns="http://www.w3.org/2000/svg">
		<path d="M17 7 7 17M7 7l10 10" stroke="#646970" stroke-linecap="round" stroke-linejoin="round"/>
	</svg>
	
	<svg fill="none" viewBox="0 0 24 24" id="drive" xmlns="http://www.w3.org/2000/svg">
		<path fill-rule="evenodd" clip-rule="evenodd" d="M7 8V3H5v5h2Zm1-5a1 1 0 0 0-1-1H5a1 1 0 0 0-1 1v5a1 1 0 0 0 1 1h2a1 1 0 0 0 1-1V6.5h3.5v11H8V16a1 1 0 0 0-1-1H5a1 1 0 0 0-1 1v5a1 1 0 0 0 1 1h2a1 1 0 0 0 1-1v-2.5h8V21a1 1 0 0 0 1 1h2a1 1 0 0 0 1-1v-5a1 1 0 0 0-1-1h-2a1 1 0 0 0-1 1v1.5h-3.5v-11H16V8a1 1 0 0 0 1 1h2a1 1 0 0 0 1-1V3a1 1 0 0 0-1-1h-2a1 1 0 0 0-1 1v2.5H8V3Zm9 0h2v5h-2V3ZM7 21v-5H5v5h2Zm10-5h2v5h-2v-5Z" fill="#2E58DB"/>
	</svg>
	
	<svg fill="none" viewBox="0 0 24 24" id="fire" xmlns="http://www.w3.org/2000/svg">
		<path d="M12 21.5a7 7 0 0 0 7-7c0-2-1-3.9-3-5.5s-3.5-4-4-6.5C11.5 5 10 7.4 8 9c-2 1.6-3 3.5-3 5.5a7 7 0 0 0 7 7Z" stroke="#2E58DB" stroke-linecap="round" stroke-linejoin="round"/>
	</svg>
	
	<svg fill="none" viewBox="0 0 16 16" id="location" xmlns="http://www.w3.org/2000/svg">
		<path d="M8 8.667a2 2 0 1 0 0-4 2 2 0 0 0 0 4Z" stroke="#646970" stroke-linecap="round" stroke-linejoin="round"/>
		<path d="M8 14.667c2.667-2.667 5.333-5.055 5.333-8a5.333 5.333 0 0 0-10.666 0c0 2.945 2.666 5.333 5.333 8Z" stroke="#646970" stroke-linecap="round" stroke-linejoin="round"/>
	</svg>
	
	<svg fill="none" viewBox="0 0 161 42" id="logo" xmlns="http://www.w3.org/2000/svg">
		<g clip-path="url(#ja)">
			<mask id="jb" style="mask-type:luminance" maskUnits="userSpaceOnUse" x="0" y="10" width="161" height="22">
				<path d="M161 10.5H0v21h161v-21Z" fill="#fff"/>
			</mask>
			<g mask="url(#jb)">
				<path d="M13.565 17.5H6.67c-.46 0-.902.178-1.231.497L.268 22.999c-.566.547-.175 1.501.616 1.501h8.875c.46 0 .902-.178 1.231-.497l5.697-5.509a3.544 3.544 0 0 1 2.463-.994H34v-7H22.956c-.46 0-.902.178-1.232.497l-5.696 5.509a3.544 3.544 0 0 1-2.463.994ZM34 24.5H14.813c-.46 0-.902.178-1.232.497L8.41 29.999c-.567.547-.176 1.501.616 1.501H34v-7Z" fill="#2E58DB"/>
				<path d="M49.1 14h2.2l5.1 14h-2.04l-1.32-3.84h-5.78L45.92 28H44l5.1-14Zm3.34 8.44L50.2 15.9h-.04l-2.3 6.54h4.58ZM58.403 14h4.6c1.694 0 2.913.333 3.66 1 .76.653 1.14 1.567 1.14 2.74 0 1.347-.587 2.333-1.76 2.96v.04c1.44.587 2.16 1.693 2.16 3.32 0 1.267-.38 2.24-1.14 2.92-.746.68-1.966 1.02-3.66 1.02h-5V14Zm1.88 1.72v4.22h2.62c1.093 0 1.854-.18 2.28-.54.44-.36.66-.88.66-1.56s-.22-1.2-.66-1.56c-.427-.373-1.187-.56-2.28-.56h-2.62Zm0 5.94v4.62h3.02c1.094 0 1.853-.187 2.28-.56.44-.387.66-.973.66-1.76 0-.773-.22-1.347-.66-1.72-.427-.387-1.186-.58-2.28-.58h-3.02ZM73.772 15.72h-4.46V14h10.8v1.72h-4.46V28h-1.88V15.72ZM87.008 28.16c-.906 0-1.726-.147-2.46-.44a5.2 5.2 0 0 1-1.9-1.3c-.52-.573-.926-1.28-1.22-2.12-.28-.853-.42-1.827-.42-2.92v-.96c0-1.04.14-1.967.42-2.78.294-.813.7-1.5 1.22-2.06a5.199 5.199 0 0 1 1.9-1.3c.747-.293 1.567-.44 2.46-.44.894 0 1.707.147 2.44.44.747.293 1.38.72 1.9 1.28.534.56.94 1.253 1.22 2.08.294.813.44 1.74.44 2.78v.96c0 1.093-.146 2.06-.44 2.9-.28.84-.686 1.547-1.22 2.12a5.187 5.187 0 0 1-1.9 1.32c-.733.293-1.546.44-2.44.44Zm0-1.72c1.2 0 2.174-.413 2.92-1.24.747-.84 1.12-2.113 1.12-3.82v-.96c0-.8-.1-1.5-.3-2.1-.2-.613-.48-1.12-.84-1.52a3.184 3.184 0 0 0-1.26-.92 4.088 4.088 0 0 0-1.64-.32c-.6 0-1.146.1-1.64.3-.493.2-.92.507-1.28.92-.36.4-.64.907-.84 1.52-.186.6-.28 1.307-.28 2.12v.96c0 .853.1 1.6.3 2.24.2.627.48 1.153.84 1.58.36.413.787.727 1.28.94.494.2 1.034.3 1.62.3ZM101.108 28.16c-.88 0-1.68-.147-2.4-.44a5.053 5.053 0 0 1-1.86-1.3c-.52-.573-.927-1.28-1.22-2.12-.28-.853-.42-1.827-.42-2.92v-.96c0-1.04.14-1.967.42-2.78.293-.813.7-1.5 1.22-2.06a5.052 5.052 0 0 1 1.86-1.3 6.402 6.402 0 0 1 2.4-.44c.8 0 1.513.113 2.14.34.64.227 1.186.54 1.64.94.466.387.84.847 1.12 1.38.293.52.493 1.087.6 1.7h-2a4.062 4.062 0 0 0-.46-1.04c-.187-.32-.427-.6-.72-.84-.28-.24-.62-.427-1.02-.56a3.97 3.97 0 0 0-1.3-.2c-.56 0-1.087.107-1.58.32-.48.2-.894.507-1.24.92-.347.413-.62.92-.82 1.52-.2.6-.3 1.3-.3 2.1v.96c0 .84.1 1.58.3 2.22.2.627.473 1.153.82 1.58.36.413.78.727 1.26.94.48.213 1 .32 1.56.32.973 0 1.746-.26 2.32-.78.586-.533.98-1.22 1.18-2.06h2a5.985 5.985 0 0 1-.6 1.84 4.893 4.893 0 0 1-1.12 1.44c-.454.4-1 .713-1.64.94-.627.227-1.34.34-2.14.34ZM112.401 14h2.2l5.1 14h-2.04l-1.32-3.84h-5.78l-1.34 3.84h-1.92l5.1-14Zm3.34 8.44-2.24-6.54h-.04l-2.3 6.54h4.58ZM120.895 26.44h.2c.56 0 .993-.16 1.3-.48.32-.333.553-.78.7-1.34.146-.573.233-1.247.26-2.02.026-.773.04-1.607.04-2.5V14h9.2v14h-1.88V15.72h-5.44v4.38c0 1.027-.027 2.027-.08 3-.04.96-.194 1.82-.46 2.58-.267.747-.68 1.347-1.24 1.8-.56.453-1.36.68-2.4.68h-.2v-1.72ZM141.286 28.16c-.907 0-1.727-.147-2.46-.44a5.2 5.2 0 0 1-1.9-1.3c-.52-.573-.927-1.28-1.22-2.12-.28-.853-.42-1.827-.42-2.92v-.96c0-1.04.14-1.967.42-2.78.293-.813.7-1.5 1.22-2.06a5.199 5.199 0 0 1 1.9-1.3c.747-.293 1.567-.44 2.46-.44s1.707.147 2.44.44c.747.293 1.38.72 1.9 1.28.533.56.94 1.253 1.22 2.08.293.813.44 1.74.44 2.78v.96c0 1.093-.147 2.06-.44 2.9-.28.84-.687 1.547-1.22 2.12a5.185 5.185 0 0 1-1.9 1.32c-.733.293-1.547.44-2.44.44Zm0-1.72c1.2 0 2.173-.413 2.92-1.24.747-.84 1.12-2.113 1.12-3.82v-.96c0-.8-.1-1.5-.3-2.1-.2-.613-.48-1.12-.84-1.52a3.188 3.188 0 0 0-1.26-.92 4.087 4.087 0 0 0-1.64-.32c-.6 0-1.147.1-1.64.3-.493.2-.92.507-1.28.92-.36.4-.64.907-.84 1.52-.187.6-.28 1.307-.28 2.12v.96c0 .853.1 1.6.3 2.24.2.627.48 1.153.84 1.58.36.413.787.727 1.28.94.493.2 1.033.3 1.62.3ZM149.985 14h1.88v5.94h7.24V14h1.88v14h-1.88v-6.34h-7.24V28h-1.88V14Z" fill="#151515"/>
			</g>
		</g>
		<defs>
			<clipPath id="ja">
				<path fill="#fff" transform="translate(0 10.5)" d="M0 0h161v21H0z"/>
			</clipPath>
		</defs>
	</svg>
	
	<svg fill="none" viewBox="0 0 24 24" id="power" xmlns="http://www.w3.org/2000/svg">
		<path d="M13 2 4.093 12.688c-.348.418-.523.628-.525.804a.5.5 0 0 0 .185.397c.138.111.41.111.955.111H12l-1 8 8.907-10.688c.348-.418.523-.628.525-.804a.5.5 0 0 0-.185-.397c-.138-.111-.41-.111-.955-.111H12l1-8Z" stroke="#2E58DB" stroke-linecap="round" stroke-linejoin="round"/>
	</svg>
	
	<svg fill="none" viewBox="0 0 24 24" id="search" xmlns="http://www.w3.org/2000/svg">
		<path d="m21 21-3.5-3.5m2.5-6a8.5 8.5 0 1 1-17 0 8.5 8.5 0 0 1 17 0Z" stroke="#9CA5B3" stroke-linecap="round" stroke-linejoin="round"/>
	</svg>
	
	<svg fill="none" viewBox="0 0 24 24" id="speedometer" xmlns="http://www.w3.org/2000/svg">
		<path d="M5 12a7 7 0 0 1 7-7m4.5 2.5L12 12m10 0c0 5.523-4.477 10-10 10S2 17.523 2 12 6.477 2 12 2s10 4.477 10 10Zm-9 0a1 1 0 1 1-2 0 1 1 0 0 1 2 0Z" stroke="#2E58DB" stroke-linecap="round" stroke-linejoin="round"/>
	</svg>

	<svg fill="none" viewBox="0 0 24 24" id="phone" xmlns="http://www.w3.org/2000/svg">
		<path d="M14.0497 6C15.0264 6.19057 15.924 6.66826 16.6277 7.37194C17.3314 8.07561 17.8091 8.97326 17.9997 9.95M14.0497 2C16.0789 2.22544 17.9713 3.13417 19.4159 4.57701C20.8606 6.01984 21.7717 7.91101 21.9997 9.94M10.2266 13.8631C9.02506 12.6615 8.07627 11.3028 7.38028 9.85323C7.32041 9.72854 7.29048 9.66619 7.26748 9.5873C7.18576 9.30695 7.24446 8.96269 7.41447 8.72526C7.46231 8.65845 7.51947 8.60129 7.63378 8.48698C7.98338 8.13737 8.15819 7.96257 8.27247 7.78679C8.70347 7.1239 8.70347 6.26932 8.27247 5.60643C8.15819 5.43065 7.98338 5.25585 7.63378 4.90624L7.43891 4.71137C6.90747 4.17993 6.64174 3.91421 6.35636 3.76987C5.7888 3.4828 5.11854 3.4828 4.55098 3.76987C4.2656 3.91421 3.99987 4.17993 3.46843 4.71137L3.3108 4.86901C2.78117 5.39863 2.51636 5.66344 2.31411 6.02348C2.08969 6.42298 1.92833 7.04347 1.9297 7.5017C1.93092 7.91464 2.01103 8.19687 2.17124 8.76131C3.03221 11.7947 4.65668 14.6571 7.04466 17.045C9.43264 19.433 12.295 21.0575 15.3284 21.9185C15.8928 22.0787 16.1751 22.1588 16.588 22.16C17.0462 22.1614 17.6667 22 18.0662 21.7756C18.4263 21.5733 18.6911 21.3085 19.2207 20.7789L19.3783 20.6213C19.9098 20.0898 20.1755 19.8241 20.3198 19.5387C20.6069 18.9712 20.6069 18.3009 20.3198 17.7333C20.1755 17.448 19.9098 17.1822 19.3783 16.6508L19.1835 16.4559C18.8339 16.1063 18.6591 15.9315 18.4833 15.8172C17.8204 15.3862 16.9658 15.3862 16.3029 15.8172C16.1271 15.9315 15.9523 16.1063 15.6027 16.4559C15.4884 16.5702 15.4313 16.6274 15.3644 16.6752C15.127 16.8453 14.7828 16.904 14.5024 16.8222C14.4235 16.7992 14.3612 16.7693 14.2365 16.7094C12.7869 16.0134 11.4282 15.0646 10.2266 13.8631Z" stroke="#2E58DB" stroke-linecap="round" stroke-linejoin="round"/>
	</svg>
	
</svg>

<?xml version="1.0" encoding="utf-8"?><svg viewBox="0 0 161 42" xmlns="http://www.w3.org/2000/svg" xmlns:xlink="http://www.w3.org/1999/xlink"><style>:root>svg{display:none}:root>svg:target{display:block}</style><svg fill="none" viewBox="0 0 24 24" id="alert" xmlns="http://www.w3.org/2000/svg"><path d="M12 16v-5m0-3h-.01M2 12C2 6.477 6.477 2 12 2s10 4.477 10 10-4.477 10-10 10S2 17.523 2 12Z" stroke="#2E58DB" stroke-linecap="round" stroke-linejoin="round"/></svg><svg fill="none" viewBox="0 0 24 24" id="arrow-left" xmlns="http://www.w3.org/2000/svg"><path d="m10 12 4-4v8l-4-4Z" fill="#151515"/></svg><svg fill="none" viewBox="0 0 24 24" id="arrow-right" xmlns="http://www.w3.org/2000/svg"><path d="m14 12-4-4v8l4-4Z" fill="#9CA5B3"/></svg><svg fill="none" viewBox="0 0 24 24" id="arrow-up" xmlns="http://www.w3.org/2000/svg"><path d="m12 10-4 4h8l-4-4Z" fill="#646970"/></svg><svg fill="none" viewBox="0 0 16 16" id="clock" xmlns="http://www.w3.org/2000/svg"><g clip-path="url(#ea)"><path d="M8 4v4l2.667 1.333m4-1.333A6.667 6.667 0 1 1 1.333 8a6.667 6.667 0 0 1 13.334 0Z" stroke="#646970" stroke-linecap="round" stroke-linejoin="round"/></g><defs><clipPath id="ea"><path fill="#fff" d="M0 0h16v16H0z"/></clipPath></defs></svg><svg fill="none" viewBox="0 0 24 24" id="close" xmlns="http://www.w3.org/2000/svg"><path d="M17 7 7 17M7 7l10 10" stroke="#646970" stroke-linecap="round" stroke-linejoin="round"/></svg><svg fill="none" viewBox="0 0 24 24" id="drive" xmlns="http://www.w3.org/2000/svg"><path fill-rule="evenodd" clip-rule="evenodd" d="M7 8V3H5v5h2Zm1-5a1 1 0 0 0-1-1H5a1 1 0 0 0-1 1v5a1 1 0 0 0 1 1h2a1 1 0 0 0 1-1V6.5h3.5v11H8V16a1 1 0 0 0-1-1H5a1 1 0 0 0-1 1v5a1 1 0 0 0 1 1h2a1 1 0 0 0 1-1v-2.5h8V21a1 1 0 0 0 1 1h2a1 1 0 0 0 1-1v-5a1 1 0 0 0-1-1h-2a1 1 0 0 0-1 1v1.5h-3.5v-11H16V8a1 1 0 0 0 1 1h2a1 1 0 0 0 1-1V3a1 1 0 0 0-1-1h-2a1 1 0 0 0-1 1v2.5H8V3Zm9 0h2v5h-2V3ZM7 21v-5H5v5h2Zm10-5h2v5h-2v-5Z" fill="#2E58DB"/></svg><svg fill="none" viewBox="0 0 24 24" id="fire" xmlns="http://www.w3.org/2000/svg"><path d="M12 21.5a7 7 0 0 0 7-7c0-2-1-3.9-3-5.5s-3.5-4-4-6.5C11.5 5 10 7.4 8 9c-2 1.6-3 3.5-3 5.5a7 7 0 0 0 7 7Z" stroke="#2E58DB" stroke-linecap="round" stroke-linejoin="round"/></svg><svg fill="none" viewBox="0 0 16 16" id="location" xmlns="http://www.w3.org/2000/svg"><path d="M8 8.667a2 2 0 1 0 0-4 2 2 0 0 0 0 4Z" stroke="#646970" stroke-linecap="round" stroke-linejoin="round"/><path d="M8 14.667c2.667-2.667 5.333-5.055 5.333-8a5.333 5.333 0 0 0-10.666 0c0 2.945 2.666 5.333 5.333 8Z" stroke="#646970" stroke-linecap="round" stroke-linejoin="round"/></svg><svg fill="none" viewBox="0 0 161 42" id="logo" xmlns="http://www.w3.org/2000/svg"><g clip-path="url(#ja)"><mask id="jb" style="mask-type:luminance" maskUnits="userSpaceOnUse" x="0" y="10" width="161" height="22"><path d="M161 10.5H0v21h161v-21Z" fill="#fff"/></mask><g mask="url(#jb)"><path d="M13.565 17.5H6.67c-.46 0-.902.178-1.231.497L.268 22.999c-.566.547-.175 1.501.616 1.501h8.875c.46 0 .902-.178 1.231-.497l5.697-5.509a3.544 3.544 0 0 1 2.463-.994H34v-7H22.956c-.46 0-.902.178-1.232.497l-5.696 5.509a3.544 3.544 0 0 1-2.463.994ZM34 24.5H14.813c-.46 0-.902.178-1.232.497L8.41 29.999c-.567.547-.176 1.501.616 1.501H34v-7Z" fill="#2E58DB"/><path d="M49.1 14h2.2l5.1 14h-2.04l-1.32-3.84h-5.78L45.92 28H44l5.1-14Zm3.34 8.44L50.2 15.9h-.04l-2.3 6.54h4.58ZM58.403 14h4.6c1.694 0 2.913.333 3.66 1 .76.653 1.14 1.567 1.14 2.74 0 1.347-.587 2.333-1.76 2.96v.04c1.44.587 2.16 1.693 2.16 3.32 0 1.267-.38 2.24-1.14 2.92-.746.68-1.966 1.02-3.66 1.02h-5V14Zm1.88 1.72v4.22h2.62c1.093 0 1.854-.18 2.28-.54.44-.36.66-.88.66-1.56s-.22-1.2-.66-1.56c-.427-.373-1.187-.56-2.28-.56h-2.62Zm0 5.94v4.62h3.02c1.094 0 1.853-.187 2.28-.56.44-.387.66-.973.66-1.76 0-.773-.22-1.347-.66-1.72-.427-.387-1.186-.58-2.28-.58h-3.02ZM73.772 15.72h-4.46V14h10.8v1.72h-4.46V28h-1.88V15.72ZM87.008 28.16c-.906 0-1.726-.147-2.46-.44a5.2 5.2 0 0 1-1.9-1.3c-.52-.573-.926-1.28-1.22-2.12-.28-.853-.42-1.827-.42-2.92v-.96c0-1.04.14-1.967.42-2.78.294-.813.7-1.5 1.22-2.06a5.199 5.199 0 0 1 1.9-1.3c.747-.293 1.567-.44 2.46-.44.894 0 1.707.147 2.44.44.747.293 1.38.72 1.9 1.28.534.56.94 1.253 1.22 2.08.294.813.44 1.74.44 2.78v.96c0 1.093-.146 2.06-.44 2.9-.28.84-.686 1.547-1.22 2.12a5.187 5.187 0 0 1-1.9 1.32c-.733.293-1.546.44-2.44.44Zm0-1.72c1.2 0 2.174-.413 2.92-1.24.747-.84 1.12-2.113 1.12-3.82v-.96c0-.8-.1-1.5-.3-2.1-.2-.613-.48-1.12-.84-1.52a3.184 3.184 0 0 0-1.26-.92 4.088 4.088 0 0 0-1.64-.32c-.6 0-1.146.1-1.64.3-.493.2-.92.507-1.28.92-.36.4-.64.907-.84 1.52-.186.6-.28 1.307-.28 2.12v.96c0 .853.1 1.6.3 2.24.2.627.48 1.153.84 1.58.36.413.787.727 1.28.94.494.2 1.034.3 1.62.3ZM101.108 28.16c-.88 0-1.68-.147-2.4-.44a5.053 5.053 0 0 1-1.86-1.3c-.52-.573-.927-1.28-1.22-2.12-.28-.853-.42-1.827-.42-2.92v-.96c0-1.04.14-1.967.42-2.78.293-.813.7-1.5 1.22-2.06a5.052 5.052 0 0 1 1.86-1.3 6.402 6.402 0 0 1 2.4-.44c.8 0 1.513.113 2.14.34.64.227 1.186.54 1.64.94.466.387.84.847 1.12 1.38.293.52.493 1.087.6 1.7h-2a4.062 4.062 0 0 0-.46-1.04c-.187-.32-.427-.6-.72-.84-.28-.24-.62-.427-1.02-.56a3.97 3.97 0 0 0-1.3-.2c-.56 0-1.087.107-1.58.32-.48.2-.894.507-1.24.92-.347.413-.62.92-.82 1.52-.2.6-.3 1.3-.3 2.1v.96c0 .84.1 1.58.3 2.22.2.627.473 1.153.82 1.58.36.413.78.727 1.26.94.48.213 1 .32 1.56.32.973 0 1.746-.26 2.32-.78.586-.533.98-1.22 1.18-2.06h2a5.985 5.985 0 0 1-.6 1.84 4.893 4.893 0 0 1-1.12 1.44c-.454.4-1 .713-1.64.94-.627.227-1.34.34-2.14.34ZM112.401 14h2.2l5.1 14h-2.04l-1.32-3.84h-5.78l-1.34 3.84h-1.92l5.1-14Zm3.34 8.44-2.24-6.54h-.04l-2.3 6.54h4.58ZM120.895 26.44h.2c.56 0 .993-.16 1.3-.48.32-.333.553-.78.7-1.34.146-.573.233-1.247.26-2.02.026-.773.04-1.607.04-2.5V14h9.2v14h-1.88V15.72h-5.44v4.38c0 1.027-.027 2.027-.08 3-.04.96-.194 1.82-.46 2.58-.267.747-.68 1.347-1.24 1.8-.56.453-1.36.68-2.4.68h-.2v-1.72ZM141.286 28.16c-.907 0-1.727-.147-2.46-.44a5.2 5.2 0 0 1-1.9-1.3c-.52-.573-.927-1.28-1.22-2.12-.28-.853-.42-1.827-.42-2.92v-.96c0-1.04.14-1.967.42-2.78.293-.813.7-1.5 1.22-2.06a5.199 5.199 0 0 1 1.9-1.3c.747-.293 1.567-.44 2.46-.44s1.707.147 2.44.44c.747.293 1.38.72 1.9 1.28.533.56.94 1.253 1.22 2.08.293.813.44 1.74.44 2.78v.96c0 1.093-.147 2.06-.44 2.9-.28.84-.687 1.547-1.22 2.12a5.185 5.185 0 0 1-1.9 1.32c-.733.293-1.547.44-2.44.44Zm0-1.72c1.2 0 2.173-.413 2.92-1.24.747-.84 1.12-2.113 1.12-3.82v-.96c0-.8-.1-1.5-.3-2.1-.2-.613-.48-1.12-.84-1.52a3.188 3.188 0 0 0-1.26-.92 4.087 4.087 0 0 0-1.64-.32c-.6 0-1.147.1-1.64.3-.493.2-.92.507-1.28.92-.36.4-.64.907-.84 1.52-.187.6-.28 1.307-.28 2.12v.96c0 .853.1 1.6.3 2.24.2.627.48 1.153.84 1.58.36.413.787.727 1.28.94.493.2 1.033.3 1.62.3ZM149.985 14h1.88v5.94h7.24V14h1.88v14h-1.88v-6.34h-7.24V28h-1.88V14Z" fill="#151515"/></g></g><defs><clipPath id="ja"><path fill="#fff" transform="translate(0 10.5)" d="M0 0h161v21H0z"/></clipPath></defs></svg><svg fill="none" viewBox="0 0 16 2" id="minus" xmlns="http://www.w3.org/2000/svg"><path d="M1 1h14" stroke="#fff" stroke-linecap="round" stroke-linejoin="round"/></svg><svg fill="none" viewBox="0 0 24 24" id="phone" xmlns="http://www.w3.org/2000/svg"><path d="M14.05 6A5 5 0 0 1 18 9.95M14.05 2A9 9 0 0 1 22 9.94m-11.773 3.923a14.604 14.604 0 0 1-2.847-4.01 1.698 1.698 0 0 1-.113-.266 1.046 1.046 0 0 1 .147-.862c.048-.067.105-.124.22-.238.35-.35.524-.524.638-.7a2 2 0 0 0 0-2.18c-.114-.176-.289-.351-.638-.7l-.195-.196c-.532-.531-.797-.797-1.083-.941a2 2 0 0 0-1.805 0c-.285.144-.551.41-1.083.941l-.157.158c-.53.53-.795.794-.997 1.154-.224.4-.386 1.02-.384 1.479 0 .413.081.695.241 1.26a19.038 19.038 0 0 0 4.874 8.283 19.039 19.039 0 0 0 8.283 4.873c.565.16.847.24 1.26.242a3.377 3.377 0 0 0 1.478-.384c.36-.203.625-.468 1.155-.997l.157-.158c.532-.531.797-.797.942-1.082a2 2 0 0 0 0-1.806c-.145-.285-.41-.55-.942-1.082l-.195-.195c-.35-.35-.524-.524-.7-.639a2 2 0 0 0-2.18 0c-.176.114-.35.29-.7.639-.115.114-.172.171-.239.22-.237.17-.581.228-.862.146a1.695 1.695 0 0 1-.266-.113 14.605 14.605 0 0 1-4.01-2.846Z" stroke="#2E58DB" stroke-linecap="round" stroke-linejoin="round"/></svg><svg fill="none" viewBox="0 0 16 16" id="plus" xmlns="http://www.w3.org/2000/svg"><path d="M8 1v14M1 8h14" stroke="#fff" stroke-linecap="round" stroke-linejoin="round"/></svg><svg fill="none" viewBox="0 0 24 24" id="power" xmlns="http://www.w3.org/2000/svg"><path d="M13 2 4.093 12.688c-.348.418-.523.628-.525.804a.5.5 0 0 0 .185.397c.138.111.41.111.955.111H12l-1 8 8.907-10.688c.348-.418.523-.628.525-.804a.5.5 0 0 0-.185-.397c-.138-.111-.41-.111-.955-.111H12l1-8Z" stroke="#2E58DB" stroke-linecap="round" stroke-linejoin="round"/></svg><svg fill="none" viewBox="0 0 24 24" id="search" xmlns="http://www.w3.org/2000/svg"><path d="m21 21-3.5-3.5m2.5-6a8.5 8.5 0 1 1-17 0 8.5 8.5 0 0 1 17 0Z" stroke="#9CA5B3" stroke-linecap="round" stroke-linejoin="round"/></svg><svg fill="none" viewBox="0 0 24 24" id="speedometer" xmlns="http://www.w3.org/2000/svg"><path d="M5 12a7 7 0 0 1 7-7m4.5 2.5L12 12m10 0c0 5.523-4.477 10-10 10S2 17.523 2 12 6.477 2 12 2s10 4.477 10 10Zm-9 0a1 1 0 1 1-2 0 1 1 0 0 1 2 0Z" stroke="#2E58DB" stroke-linecap="round" stroke-linejoin="round"/></svg></svg>
